svg/uf010b-class_hunter.svg

<svg height="960" style="" width="1162" xmlns="http://www.w3.org/2000/svg"><path d="m359.62812 302.96625 221.37188-.73312-221.46749 333.12562 221.46749-.765-236.25749 355.40625h-224.55938l224.2725-332.3925h-224.2725l224.14501-332.20125h-224.14501l239.28562-354.64125 221.53126-.765zm442.74376 0-221.37187-332.96625 221.53124.765 239.28565 354.64125h-224.14503l224.14503 332.20125h-224.27252l224.27252 332.3925h-224.55939l-236.2575-355.40625 221.4675.765-221.4675-333.12562z" style="stroke-width:31.875"/></svg>

<svg xmlns="http://www.w3.org/2000/svg" width="1162" height="960">
    <path d="M359.628 302.966 581 302.233 359.533 635.36 581 634.594 344.743 990h-224.56l224.273-332.392H120.183l224.145-332.202H120.183L359.47-29.235 581-30zm442.744 0L581-30l221.531.765 239.286 354.641H817.672l224.145 332.202H817.544L1041.817 990h-224.56L581 634.594l221.468.765L581 302.233z" style="stroke-width:31.875"/>
</svg>
